X:1
T:Title
%%score 1 { ( 2 5 6 ) | ( 3 4 ) }
L:1/8
Q:1/4=108
M:4/4
K:G
V:1 treble nm="Grand Piano"
V:2 treble nm="Grand Piano"
V:5 treble 
V:6 treble 
V:3 bass 
V:4 bass 
V:1
 d3 e d2 B2 | B2 A2 A2 d2 | d3 e d2 B2 | B2 A2 A2 D2 | G2 B2 A3 G | G8 |] %6
w: Grace~W.~Conant * * *||||||
V:2
 [GBd]4 [GBd]2 B2 | B2 A2 A2 D2 | [GBd]4 [GBd]2 B2 | B2 A2 A2 D2 | z4 A4 | [B,G]8 |] %6
V:3
 [G,,D,]2 z[K:treble] e [D,B,]2 [G,DG]2 | [DF]2 [DF]2 [DF]2 z2 | %2
 [G,,D,]2 z[K:treble] e [D,B,]2 [G,DG]2 | [DF]2 [DF]2 [DF]2[K:bass] [C,F,A,]2 | %4
 [B,,G,]2 [G,,G,]2 z2 C2 | [G,,D,]8 |] %6
V:4
 x3[K:treble] x5 | C6 z2 | x3[K:treble] x5 | C6[K:bass] z2 | z4 D,4 | x8 |] %6
V:5
 x8 | x8 | x8 | x8 | [DG]2 [DGB]2 [DG]2 z G | x8 |] %6
V:6
 x8 | x8 | x8 | x8 | z4 z2 F2 | x8 |] %6

